X:4414
L:1/8
M:6/8
K:D
 A | d2 d dcd | efe e2 d | cBc ABc | d2 f a2 f | d2 d{e} dcd | efe e2 d | cBc ABc | d2 f d2 :: e | 
 f2 f fef | a2 g g2 f | e2 e ede | g2 f f2 e | d2 d dcd | efe e2 d | cBc ABc | d2 f d2 :|

